!!!SOCIAL_FUNCTION:	unclassified songs
!!!PDT:	1909
!!!OTL: No_190_Song_of_Thanks_for_a_Gift.krn
!!!REG: Great_Lakes
!!!LANG: Non-Tone
!!!LING_GROUP: Algonquin
**kern	**kern
*staff2	*staff1
=1-	=1-
*clefF4	*clefF4
*k[b-e-a-]	*k[b-e-a-]
*M3/4	*M3/4
2r	4e-\
.	4e-\
8r	4e-\
8GG/	.
=2||	=2||
*M2/4	*M2/4
12GG^/	4.f\
12r	.
12GG/	.
12GG^/	.
12r	.
.	8e-\
12GG/	.
=3	=3
2r	4.f\
.	8e-\
=4	=4
2r	4e-\
.	8e-\L
.	8c\J
=5	=5
2r	4B-\
.	[4B-\
=6	=6
2r	2B-\]
=7	=7
2r	4.B-\
.	8G\
=8||	=8||
*M3/4	*M3/4
2.r	4.B-\
.	8B-\
.	4B-\
=9||	=9||
*M2/4	*M2/4
2r	2B-\
=10	=10
2r	4B-\
.	4B-\
=11||	=11||
*M3/4	*M3/4
2.r	4B-\
.	[4B-\
.	8B-\L]
.	8G\J
=12||	=12||
*M2/4	*M2/4
2r	2B-\
=13	=13
2r	4.G\
.	8F\
=14	=14
2r	4E-\
.	4BB-/
=15	=15
2r	4.F\
.	8E-\
=16	=16
2r	2F\
=17||	=17||
*M3/4	*M3/4
2.r	4E-\
.	2E-\
=18||	=18||
*M2/4	*M2/4
2r	2BB-/
=19	=19
2r	4.BB-/
.	8BB-/
=20	=20
2r	2BB-/
==	==
*-	*-
